X: 7730
T: Colonel McBain
R: reel
M: 4/4
K: Edorian
GEBE GEEG|FDAD FDDF|GEBE GEBd|AGFG EDEF|
GEBE GEEG|FDAD BDAF|~G3 F GBdB|AGFG E2 EF:|
G2 GF GBdB|ABAG FADF|Beed efge|fedf ed (3Bcd|
efed BGdB|ABAG FADF|Beed efge|dBAF E2 EF:|

